;==================================================
; PostProcessor v1.0 for Siemens Sinumerik 840D sl ;)
; Input: 4W1371_005B_M61R0U101.aptsource ;)
; Generated: 2026-02-22 22:59:10 ;)
;==================================================)

(TOOL NAME: D25R4)
T="D25R4"
TC
D1
FFWON
SOFT
N10 S1
M3
N20 S70
G0
N30 X2.500 Y173.000 Z36.976 A90.000 S70
G0
N40 Y40.200 S70
N50 F500.0 S70
G1
N60 Z72.450 F500.0 S70
G0
N70 Y173.000 F500.0 S70
M3
N80 F500.0 S70
G0
N90 X30.200 Z50.000 F500.0 S70
G0
N100 Y15.000 F500.0 S70
N110 F500.0 S70
N120 F500.0 S70
N130 F500.0 S70
G0
N140 Y173.000 Z70.000 F500.0 S70
M3
N150 F500.0 S585
G0
N160 X-255.012 Z-204.865 F500.0 S585
G0
N170 Y5.300 F500.0 S585
N180 F223.0 S585
G1
N190 Y3.300 F223.0 S585
G1
N200 X-257.012 F223.0 S585
G1
N210 X-262.012 Z-194.865 F223.0 S585
N220 F318.0 S585
G1
N230 X-254.112 Z-187.865 F318.0 S585
N240 F318.0 S585
G1
N250 X-247.112 Z-199.865 F318.0 S585
G1
N260 X-250.112 Z-201.865 F318.0 S585
G1
N270 Y4.300 F318.0 S585
G0
N280 Y55.800 F318.0 S585
G0
N290 X-255.012 F318.0 S585
G0
N300 Y5.300 F318.0 S585
N310 F223.0 S585
G1
N320 Y3.300 F223.0 S585
G1
N330 X-257.012 F223.0 S585
G1
N340 X-262.012 Z-191.865 F223.0 S585
N350 F318.0 S585
G1
N360 X-254.112 Z-184.865 F318.0 S585
N370 F318.0 S585
G1
N380 X-247.112 Z-196.865 F318.0 S585
G1
N390 X-250.112 Z-198.865 F318.0 S585
G1
N400 Y4.300 F318.0 S585
G0
N410 Y55.800 F318.0 S585
G0
N420 X-255.012 F318.0 S585
G0
N430 Y5.300 F318.0 S585
N440 F223.0 S585
G1
N450 Y3.300 F223.0 S585
G1
N460 X-257.012 F223.0 S585
G1
N470 X-262.012 Z-188.865 F223.0 S585
N480 F318.0 S585
G1
N490 X-254.112 Z-181.865 F318.0 S585
N500 F318.0 S585
G1
N510 X-247.112 Z-193.865 F318.0 S585
G1
N520 X-250.112 Z-195.865 F318.0 S585
G1
N530 Y4.300 F318.0 S585
G0
N540 Y55.800 F318.0 S585
G0
N550 X-255.012 F318.0 S585
G0
N560 Y5.300 F318.0 S585
N570 F223.0 S585
G1
N580 Y3.300 F223.0 S585
G1
N590 X-257.012 F223.0 S585
G1
N600 X-262.012 Z-185.865 F223.0 S585
N610 F318.0 S585
G1
N620 X-254.112 Z-178.865 F318.0 S585
N630 F318.0 S585
G1
N640 X-247.112 Z-190.865 F318.0 S585
G1
N650 X-250.112 Z-192.865 F318.0 S585
G1
N660 Y4.300 F318.0 S585
G0
N670 Y55.800 F318.0 S585
G0
N680 X-255.012 F318.0 S585
G0
N690 Y5.300 F318.0 S585
N700 F223.0 S585
G1
N710 Y3.300 F223.0 S585
G1
N720 X-257.012 F223.0 S585
G1
N730 X-262.012 Z-182.865 F223.0 S585
N740 F318.0 S585
G1
N750 X-254.112 Z-175.865 F318.0 S585
N760 F318.0 S585
G1
N770 X-247.112 Z-187.865 F318.0 S585
G1
N780 X-250.112 Z-189.865 F318.0 S585
G1
N790 Y4.300 F318.0 S585
G0
N800 Y55.800 F318.0 S585
G0
N810 X-255.012 F318.0 S585
G0
N820 Y5.300 F318.0 S585
N830 F223.0 S585
G1
N840 Y3.300 F223.0 S585
G1
N850 X-257.012 F223.0 S585
G1
N860 X-262.012 Z-179.865 F223.0 S585
N870 F318.0 S585
G1
N880 X-254.112 Z-172.865 F318.0 S585
N890 F318.0 S585
G1
N900 X-247.112 Z-184.865 F318.0 S585
G1
N910 X-250.112 Z-186.865 F318.0 S585
G1
N920 Y4.300 F318.0 S585
G0
N930 Y55.800 F318.0 S585
G0
N940 X-255.012 F318.0 S585
G0
N950 Y5.300 F318.0 S585
N960 F223.0 S585
G1
N970 Y3.300 F223.0 S585
G1
N980 X-257.012 F223.0 S585
G1
N990 X-262.012 Z-176.865 F223.0 S585
N1000 F318.0 S585
G1
N1010 X-254.112 Z-169.865 F318.0 S585
N1020 F318.0 S585
G1
N1030 X-247.112 Z-181.865 F318.0 S585
G1
N1040 X-250.112 Z-183.865 F318.0 S585
G1
N1050 Y4.300 F318.0 S585
G0
N1060 Y55.800 F318.0 S585
G0
N1070 X-255.012 F318.0 S585
G0
N1080 Y5.300 F318.0 S585
N1090 F223.0 S585
G1
N1100 Y3.300 F223.0 S585
G1
N1110 X-257.012 F223.0 S585
G1
N1120 X-262.012 Z-173.865 F223.0 S585
N1130 F318.0 S585
G1
N1140 X-254.112 Z-166.865 F318.0 S585
N1150 F318.0 S585
G1
N1160 X-247.112 Z-178.865 F318.0 S585
G1
N1170 X-250.112 Z-180.865 F318.0 S585
G1
N1180 Y4.300 F318.0 S585
G0
N1190 Y55.800 F318.0 S585
G0
N1200 X-255.012 F318.0 S585
G0
N1210 Y5.300 F318.0 S585
N1220 F223.0 S585
G1
N1230 Y3.300 F223.0 S585
G1
N1240 X-257.012 F223.0 S585
G1
N1250 X-262.012 Z-170.865 F223.0 S585
N1260 F318.0 S585
G1
N1270 X-254.112 Z-163.865 F318.0 S585
N1280 F318.0 S585
G1
N1290 X-247.112 Z-175.865 F318.0 S585
G1
N1300 X-250.112 Z-177.865 F318.0 S585
G1
N1310 Y4.300 F318.0 S585
G0
N1320 Y55.800 F318.0 S585
G0
N1330 X-255.012 F318.0 S585
G0
N1340 Y5.300 F318.0 S585
N1350 F223.0 S585
G1
N1360 Y3.300 F223.0 S585
G1
N1370 X-257.012 F223.0 S585
G1
N1380 X-262.012 Z-167.865 F223.0 S585
N1390 F318.0 S585
G1
N1400 X-254.112 Z-160.865 F318.0 S585
N1410 F318.0 S585
G1
N1420 X-247.112 Z-172.865 F318.0 S585
G1
N1430 X-250.112 Z-174.865 F318.0 S585
G1
N1440 Y4.300 F318.0 S585
G0
N1450 Y55.800 F318.0 S585
G0
N1460 X-255.012 F318.0 S585
G0
N1470 Y5.300 F318.0 S585
N1480 F223.0 S585
G1
N1490 Y3.300 F223.0 S585
G1
N1500 X-257.012 F223.0 S585
G1
N1510 X-262.012 Z-164.865 F223.0 S585
N1520 F318.0 S585
G1
N1530 X-254.112 Z-157.865 F318.0 S585
N1540 F318.0 S585
G1
N1550 X-247.112 Z-169.865 F318.0 S585
G1
N1560 X-250.112 Z-171.865 F318.0 S585
G1
N1570 Y4.300 F318.0 S585
G0
N1580 Y55.800 F318.0 S585
G0
N1590 X-255.012 F318.0 S585
G0
N1600 Y5.300 F318.0 S585
N1610 F223.0 S585
G1
N1620 Y3.300 F223.0 S585
G1
N1630 X-257.012 F223.0 S585
G1
N1640 X-262.012 Z-161.865 F223.0 S585
N1650 F318.0 S585
G1
N1660 X-254.112 Z-154.865 F318.0 S585
N1670 F318.0 S585
G1
N1680 X-247.112 Z-166.865 F318.0 S585
G1
N1690 X-250.112 Z-168.865 F318.0 S585
G1
N1700 Y4.300 F318.0 S585
G0
N1710 Y55.800 F318.0 S585
G0
N1720 X-255.012 F318.0 S585
G0
N1730 Y5.300 F318.0 S585
N1740 F223.0 S585
G1
N1750 Y3.300 F223.0 S585
G1
N1760 X-257.012 F223.0 S585
G1
N1770 X-262.012 Z-158.865 F223.0 S585
N1780 F318.0 S585
G1
N1790 X-254.112 Z-151.865 F318.0 S585
N1800 F318.0 S585
G1
N1810 X-247.112 Z-163.865 F318.0 S585
G1
N1820 X-250.112 Z-165.865 F318.0 S585
G1
N1830 Y4.300 F318.0 S585
G0
N1840 Y55.800 F318.0 S585
G0
N1850 X-255.012 F318.0 S585
G0
N1860 Y5.300 F318.0 S585
N1870 F223.0 S585
G1
N1880 Y3.300 F223.0 S585
G1
N1890 X-257.012 F223.0 S585
G1
N1900 X-262.012 Z-155.865 F223.0 S585
N1910 F318.0 S585
G1
N1920 X-254.112 Z-148.865 F318.0 S585
N1930 F318.0 S585
G1
N1940 X-247.112 Z-160.865 F318.0 S585
G1
N1950 X-250.112 Z-162.865 F318.0 S585
G1
N1960 Y4.300 F318.0 S585
G0
N1970 Y55.800 F318.0 S585
G0
N1980 X-255.012 F318.0 S585
G0
N1990 Y5.300 F318.0 S585
N2000 F223.0 S585
G1
N2010 Y3.300 F223.0 S585
G1
N2020 X-257.012 F223.0 S585
G1
N2030 X-262.012 Z-152.865 F223.0 S585
N2040 F318.0 S585
G1
N2050 X-254.112 Z-145.865 F318.0 S585
N2060 F318.0 S585
G1
N2070 X-247.112 Z-157.865 F318.0 S585
G1
N2080 X-250.112 Z-159.865 F318.0 S585
G1
N2090 Y4.300 F318.0 S585
G0
N2100 Y55.800 F318.0 S585
G0
N2110 X-255.012 F318.0 S585
G0
N2120 Y5.300 F318.0 S585
N2130 F223.0 S585
G1
N2140 Y3.300 F223.0 S585
G1
N2150 X-257.012 F223.0 S585
G1
N2160 X-262.012 Z-149.865 F223.0 S585
N2170 F318.0 S585
G1
N2180 X-254.112 Z-142.865 F318.0 S585
N2190 F318.0 S585
G1
N2200 X-247.112 Z-154.865 F318.0 S585
G1
N2210 X-250.112 Z-156.865 F318.0 S585
G1
N2220 Y4.300 F318.0 S585
G0
N2230 Y55.800 F318.0 S585
G0
N2240 X-255.012 F318.0 S585
G0
N2250 Y5.300 F318.0 S585
N2260 F223.0 S585
G1
N2270 Y3.300 F223.0 S585
G1
N2280 X-257.012 F223.0 S585
G1
N2290 X-262.012 Z-146.865 F223.0 S585
N2300 F318.0 S585
G1
N2310 X-254.112 Z-139.865 F318.0 S585
N2320 F318.0 S585
G1
N2330 X-247.112 Z-151.865 F318.0 S585
G1
N2340 X-250.112 Z-153.865 F318.0 S585
G1
N2350 Y4.300 F318.0 S585
G0
N2360 Y173.000 F318.0 S585
M3
N2370 F318.0 S585
G0
N2380 X-256.862 Z-153.000 F318.0 S585
G0
N2390 Y5.300 F318.0 S585
N2400 F223.0 S585
G1
N2410 Y3.300 F223.0 S585
G1
N2420 X-258.862 F223.0 S585
G1
N2430 X-261.862 Z-145.000 F223.0 S585
N2440 F318.0 S585
N2450 F318.0 S585
G1
N2460 X-247.262 Z-150.000 F318.0 S585
G1
N2470 X-250.262 Z-152.000 F318.0 S585
G1
N2480 Y4.300 F318.0 S585
G0
N2490 Y173.000 F318.0 S585
M3
N2500 F318.0 S585
G0
N2510 X-32.802 Z226.500 F318.0 S585
G0
N2520 Y40.100 F318.0 S585
N2530 F223.0 S585
G1
N2540 Y38.100 F223.0 S585
N2550 F318.0 S585
G1
N2560 X-34.765 F318.0 S585
G1
N2570 X-42.824 Z236.767 F318.0 S585
N2580 F318.0 S585
G1
N2590 X-43.151 Z249.763 F318.0 S585
G1
N2600 Y39.100 F318.0 S585
G0
N2610 Y87.600 F318.0 S585
G0
N2620 X-33.277 Z223.500 F318.0 S585
G0
N2630 Y40.100 F318.0 S585
N2640 F223.0 S585
G1
N2650 Y38.100 F223.0 S585
N2660 F318.0 S585
G1
N2670 X-37.690 F318.0 S585
G1
N2680 X-45.823 Z236.692 F318.0 S585
N2690 F318.0 S585
G1
N2700 X-46.150 Z249.688 F318.0 S585
G1
N2710 Y39.100 F318.0 S585
G0
N2720 Y87.600 F318.0 S585
G0
N2730 X-33.752 Z220.500 F318.0 S585
G0
N2740 Y40.100 F318.0 S585
N2750 F223.0 S585
G1
N2760 Y38.100 F223.0 S585
N2770 F318.0 S585
G1
N2780 X-40.626 F318.0 S585
G1
N2790 X-48.636 Z229.185 F318.0 S585
G1
N2800 X-48.823 Z236.616 F318.0 S585
N2810 F318.0 S585
G1
N2820 X-49.149 Z249.612 F318.0 S585
G1
N2830 Y39.100 F318.0 S585
G0
N2840 Y87.600 F318.0 S585
G0
N2850 X-34.227 Z217.500 F318.0 S585
G0
N2860 Y40.100 F318.0 S585
N2870 F223.0 S585
G1
N2880 Y38.100 F223.0 S585
N2890 F318.0 S585
G1
N2900 X-43.625 F318.0 S585
G1
N2910 X-51.625 Z228.293 F318.0 S585
G1
N2920 X-51.635 Z229.110 F318.0 S585
G1
N2930 X-51.822 Z236.541 F318.0 S585
N2940 F318.0 S585
G1
N2950 X-52.148 Z249.537 F318.0 S585
G1
N2960 Y39.100 F318.0 S585
G0
N2970 Y87.600 F318.0 S585
G0
N2980 X-34.702 Z214.500 F318.0 S585
G0
N2990 Y40.100 F318.0 S585
N3000 F223.0 S585
G1
N3010 Y38.100 F223.0 S585
N3020 F318.0 S585
G1
N3030 X-43.538 F318.0 S585
G1
N3040 X-46.587 F318.0 S585
G1
N3050 X-54.625 Z223.862 F318.0 S585
G1
N3060 Z228.293 F318.0 S585
G1
N3070 X-54.634 Z229.034 F318.0 S585
G1
N3080 X-54.821 Z236.466 F318.0 S585
N3090 F318.0 S585
G1
N3100 X-55.147 Z249.462 F318.0 S585
G1
N3110 Y39.100 F318.0 S585
G0
N3120 Y87.600 F318.0 S585
G0
N3130 X-35.177 Z211.500 F318.0 S585
G0
N3140 Y40.100 F318.0 S585
N3150 F223.0 S585
G1
N3160 Y38.100 F223.0 S585
N3170 F318.0 S585
G1
N3180 X-43.538 F318.0 S585
G1
N3190 X-49.511 F318.0 S585
G1
N3200 X-57.625 Z223.836 F318.0 S585
G1
N3210 Z228.293 F318.0 S585
G1
N3220 X-57.633 Z228.959 F318.0 S585
G1
N3230 X-57.820 Z236.390 F318.0 S585
N3240 F318.0 S585
G1
N3250 X-58.146 Z249.386 F318.0 S585
G1
N3260 Y39.100 F318.0 S585
G0
N3270 Y87.600 F318.0 S585
G0
N3280 X-35.653 Z208.500 F318.0 S585
G0
N3290 Y40.100 F318.0 S585
N3300 F223.0 S585
G1
N3310 Y38.100 F223.0 S585
N3320 F318.0 S585
G1
N3330 X-43.538 F318.0 S585
G1
N3340 X-52.436 F318.0 S585
G1
N3350 X-60.625 Z223.785 F318.0 S585
G1
N3360 Z228.293 F318.0 S585
G1
N3370 X-60.632 Z228.883 F318.0 S585
G1
N3380 X-60.819 Z236.315 F318.0 S585
N3390 F318.0 S585
G1
N3400 X-61.145 Z249.311 F318.0 S585
G1
N3410 Y39.100 F318.0 S585
G0
N3420 Y87.600 F318.0 S585
G0
N3430 X-36.128 Z205.500 F318.0 S585
G0
N3440 Y40.100 F318.0 S585
N3450 F223.0 S585
G1
N3460 Y38.100 F223.0 S585
N3470 F318.0 S585
G1
N3480 X-43.538 F318.0 S585
G1
N3490 X-55.361 F318.0 S585
G1
N3500 X-63.625 Z223.759 F318.0 S585
G1
N3510 Z228.293 F318.0 S585
G1
N3520 X-63.631 Z228.808 F318.0 S585
G1
N3530 X-63.818 Z236.240 F318.0 S585
N3540 F318.0 S585
G1
N3550 X-64.144 Z249.235 F318.0 S585
G1
N3560 Y39.100 F318.0 S585
G0
N3570 Y87.600 F318.0 S585
G0
N3580 X-36.603 Z202.500 F318.0 S585
G0
N3590 Y40.100 F318.0 S585
N3600 F223.0 S585
G1
N3610 Y38.100 F223.0 S585
N3620 F318.0 S585
G1
N3630 X-43.538 F318.0 S585
G1
N3640 X-58.286 F318.0 S585
G1
N3650 X-66.625 Z223.733 F318.0 S585
G1
N3660 Z228.293 F318.0 S585
G1
N3670 X-66.630 Z228.733 F318.0 S585
G1
N3680 X-66.817 Z236.164 F318.0 S585
N3690 F318.0 S585
G1
N3700 X-67.143 Z249.160 F318.0 S585
G1
N3710 Y39.100 F318.0 S585
G0
N3720 Y87.600 F318.0 S585
G0
N3730 X-37.078 Z199.500 F318.0 S585
G0
N3740 Y40.100 F318.0 S585
N3750 F223.0 S585
G1
N3760 Y38.100 F223.0 S585
N3770 F318.0 S585
G1
N3780 X-43.538 F318.0 S585
G1
N3790 X-61.211 F318.0 S585
G1
N3800 X-69.625 Z223.733 F318.0 S585
G1
N3810 Z228.293 F318.0 S585
G1
N3820 X-69.629 Z228.657 F318.0 S585
G1
N3830 X-69.816 Z236.089 F318.0 S585
N3840 F318.0 S585
G1
N3850 X-70.143 Z249.085 F318.0 S585
G1
N3860 Y39.100 F318.0 S585
G0
N3870 Y173.000 F318.0 S585
M3
N3880 F318.0 S585
G0
N3890 X-37.038 Z197.700 F318.0 S585
G0
N3900 Y40.100 F318.0 S585
N3910 F223.0 S585
G1
N3920 Y38.100 F223.0 S585
N3930 F318.0 S585
G1
N3940 X-43.538 F318.0 S585
G1
N3950 X-62.909 F318.0 S585
G1
N3960 X-66.553 F318.0 S585
G1
N3970 X-73.458 Z197.703 F318.0 S585
G1
N3980 X-71.614 Z235.992 F318.0 S585
N3990 F318.0 S585
G1
N4000 X-71.888 Z248.989 F318.0 S585
G1
N4010 Y39.100 F318.0 S585
G0
N4020 Y173.000 F318.0 S585
M3
N4030 F318.0 S585
G0
N4040 X-467.035 Z249.057 F318.0 S585
G0
N4050 Y40.100 F318.0 S585
N4060 F223.0 S585
G1
N4070 Y38.100 F223.0 S585
G1
N4080 X-466.658 Z234.062 F223.0 S585
N4090 F318.0 S585
G1
N4100 X-466.648 Z233.683 F318.0 S585
G1
N4110 X-475.310 Z226.500 F318.0 S585
N4120 F318.0 S585
G1
N4130 X-479.310 F318.0 S585
G1
N4140 Y39.100 F318.0 S585
G0
N4150 Y173.000 F318.0 S585
M3
N4160 F318.0 S585
G0
N4170 X-464.036 Z249.133 F318.0 S585
G0
N4180 Y40.100 F318.0 S585
N4190 F223.0 S585
G1
N4200 Y38.100 F223.0 S585
G1
N4210 X-463.659 Z234.137 F223.0 S585
N4220 F318.0 S585
G1
N4230 X-463.596 Z231.708 F318.0 S585
G1
N4240 X-475.848 Z223.500 F318.0 S585
N4250 F318.0 S585
G1
N4260 X-479.848 F318.0 S585
G1
N4270 Y39.100 F318.0 S585
G0
N4280 Y87.600 F318.0 S585
G0
N4290 X-461.037 Z249.208 F318.0 S585
G0
N4300 Y40.100 F318.0 S585
N4310 F223.0 S585
G1
N4320 Y38.100 F223.0 S585
G1
N4330 X-460.660 Z234.213 F223.0 S585
N4340 F318.0 S585
G1
N4350 X-460.516 Z228.709 F318.0 S585
G1
N4360 X-475.373 Z220.500 F318.0 S585
N4370 F318.0 S585
G1
N4380 X-479.373 F318.0 S585
G1
N4390 Y39.100 F318.0 S585
G0
N4400 Y87.600 F318.0 S585
G0
N4410 X-458.038 Z249.284 F318.0 S585
G0
N4420 Y40.100 F318.0 S585
N4430 F223.0 S585
G1
N4440 Y38.100 F223.0 S585
G1
N4450 X-457.661 Z234.288 F223.0 S585
N4460 F318.0 S585
G1
N4470 X-457.500 Z228.112 F318.0 S585
G1
N4480 Z225.500 F318.0 S585
G1
N4490 X-474.897 Z217.500 F318.0 S585
N4500 F318.0 S585
G1
N4510 X-478.897 F318.0 S585
G1
N4520 Y39.100 F318.0 S585
G0
N4530 Y87.600 F318.0 S585
G0
N4540 X-455.039 Z249.359 F318.0 S585
G0
N4550 Y40.100 F318.0 S585
N4560 F223.0 S585
G1
N4570 Y38.100 F223.0 S585
G1
N4580 X-454.662 Z234.364 F223.0 S585
N4590 F318.0 S585
G1
N4600 X-454.500 Z228.163 F318.0 S585
G1
N4610 Z223.733 F318.0 S585
G1
N4620 Z222.500 F318.0 S585
G1
N4630 X-465.156 Z214.500 F318.0 S585
G1
N4640 X-474.422 F318.0 S585
N4650 F318.0 S585
G1
N4660 X-478.422 F318.0 S585
G1
N4670 Y39.100 F318.0 S585
G0
N4680 Y87.600 F318.0 S585
G0
N4690 X-452.040 Z249.434 F318.0 S585
G0
N4700 Y40.100 F318.0 S585
N4710 F223.0 S585
G1
N4720 Y38.100 F223.0 S585
G1
N4730 X-451.663 Z234.439 F223.0 S585
N4740 F318.0 S585
G1
N4750 X-451.500 Z228.189 F318.0 S585
G1
N4760 Z223.733 F318.0 S585
G1
N4770 Z219.500 F318.0 S585
G1
N4780 X-465.156 Z211.500 F318.0 S585
G1
N4790 X-473.947 F318.0 S585
N4800 F318.0 S585
G1
N4810 X-477.947 F318.0 S585
G1
N4820 Y39.100 F318.0 S585
G0
N4830 Y87.600 F318.0 S585
G0
N4840 X-449.041 Z249.510 F318.0 S585
G0
N4850 Y40.100 F318.0 S585
N4860 F223.0 S585
G1
N4870 Y38.100 F223.0 S585
G1
N4880 X-448.664 Z234.514 F223.0 S585
N4890 F318.0 S585
G1
N4900 X-448.500 Z228.241 F318.0 S585
G1
N4910 Z223.733 F318.0 S585
G1
N4920 Z216.500 F318.0 S585
G1
N4930 X-465.156 Z208.500 F318.0 S585
G1
N4940 X-473.472 F318.0 S585
N4950 F318.0 S585
G1
N4960 X-477.472 F318.0 S585
G1
N4970 Y39.100 F318.0 S585
G0
N4980 Y87.600 F318.0 S585
G0
N4990 X-446.042 Z249.585 F318.0 S585
G0
N5000 Y40.100 F318.0 S585
N5010 F223.0 S585
G1
N5020 Y38.100 F223.0 S585
G1
N5030 X-445.665 Z234.590 F223.0 S585
N5040 F318.0 S585
G1
N5050 X-445.500 Z228.267 F318.0 S585
G1
N5060 Z223.733 F318.0 S585
G1
N5070 Z213.500 F318.0 S585
G1
N5080 X-465.156 Z205.500 F318.0 S585
G1
N5090 X-472.997 F318.0 S585
N5100 F318.0 S585
G1
N5110 X-476.997 F318.0 S585
G1
N5120 Y39.100 F318.0 S585
G0
N5130 Y87.600 F318.0 S585
G0
N5140 X-443.043 Z249.660 F318.0 S585
G0
N5150 Y40.100 F318.0 S585
N5160 F223.0 S585
G1
N5170 Y38.100 F223.0 S585
G1
N5180 X-442.666 Z234.665 F223.0 S585
N5190 F318.0 S585
G1
N5200 X-442.500 Z228.293 F318.0 S585
G1
N5210 Z223.733 F318.0 S585
G1
N5220 Z210.500 F318.0 S585
G1
N5230 X-465.156 Z202.500 F318.0 S585
G1
N5240 X-472.522 F318.0 S585
N5250 F318.0 S585
G1
N5260 X-476.522 F318.0 S585
G1
N5270 Y39.100 F318.0 S585
G0
N5280 Y87.600 F318.0 S585
G0
N5290 X-440.044 Z249.736 F318.0 S585
G0
N5300 Y40.100 F318.0 S585
N5310 F223.0 S585
G1
N5320 Y38.100 F223.0 S585
G1
N5330 X-439.667 Z234.741 F223.0 S585
N5340 F318.0 S585
G1
N5350 X-439.500 Z228.293 F318.0 S585
G1
N5360 Z223.733 F318.0 S585
G1
N5370 Z207.500 F318.0 S585
G1
N5380 X-465.156 Z199.500 F318.0 S585
G1
N5390 X-472.046 F318.0 S585
N5400 F318.0 S585
G1
N5410 X-476.046 F318.0 S585
G1
N5420 Y39.100 F318.0 S585
G0
N5430 Y173.000 F318.0 S585
M3
N5440 F318.0 S585
G0
N5450 X-438.244 Z249.781 F318.0 S585
G0
N5460 Y40.100 F318.0 S585
N5470 F223.0 S585
G1
N5480 Y38.100 F223.0 S585
G1
N5490 X-437.867 Z234.786 F223.0 S585
N5500 F318.0 S585
G1
N5510 X-437.700 Z228.293 F318.0 S585
G1
N5520 Z223.733 F318.0 S585
G1
N5530 Z208.658 F318.0 S585
G1
N5540 X-442.571 Z197.700 F318.0 S585
G1
N5550 X-446.216 F318.0 S585
G1
N5560 X-465.156 F318.0 S585
N5570 F318.0 S585
G1
N5580 X-475.156 F318.0 S585
G1
N5590 Y39.100 F318.0 S585
G0
N5600 Y173.000 F318.0 S585
M3
N5610 F318.0 S585
G0
N5620 X-262.062 Z-197.908 F318.0 S585
G0
N5630 Y4.800 F318.0 S585
N5640 F160.0 S585
G1
N5650 Y2.800 F160.0 S585
N5660 F160.0 S585
G1
N5670 Z-177.908 F160.0 S585
G1
N5680 Z-145.000 F160.0 S585
G1
N5690 X-247.062 Z-177.908 F160.0 S585
G1
N5700 Z-197.908 F160.0 S585
N5710 F160.0 S585
G1
N5720 Y3.800 F160.0 S585
G0
N5730 Y173.000 F160.0 S585
M3
N5740 F160.0 S585
G0
N5750 X-465.036 Z249.108 F160.0 S585
G0
N5760 Y39.600 F160.0 S585
N5770 F160.0 S585
G1
N5780 Y37.600 F160.0 S585
G1
N5790 X-464.659 Z234.112 F160.0 S585
N5800 F160.0 S585
G1
N5810 X-464.500 Z228.034 F160.0 S585
G1
N5820 Z224.500 F160.0 S585
G1
N5830 X-465.156 F160.0 S585
N5840 F160.0 S585
G1
N5850 X-475.156 F160.0 S585
G1
N5860 Y38.600 F160.0 S585
G0
N5870 Y87.600 F160.0 S585
G0
N5880 X-456.038 Z249.334 F160.0 S585
G0
N5890 Y39.600 F160.0 S585
N5900 F160.0 S585
G1
N5910 Y37.600 F160.0 S585
G1
N5920 X-455.662 Z234.339 F160.0 S585
N5930 F160.0 S585
G1
N5940 X-455.500 Z228.137 F160.0 S585
G1
N5950 Z225.494 F160.0 S585
N5960 F160.0 S585
G1
N5970 X-475.150 Z215.156 F160.0 S585
G1
N5980 Y38.600 F160.0 S585
G0
N5990 Y87.600 F160.0 S585
G0
N6000 X-447.041 Z249.560 F160.0 S585
G0
N6010 Y39.600 F160.0 S585
N6020 F160.0 S585
G1
N6030 Y37.600 F160.0 S585
G1
N6040 X-446.664 Z234.565 F160.0 S585
N6050 F160.0 S585
G1
N6060 X-446.500 Z228.267 F160.0 S585
G1
N6070 Z223.733 F160.0 S585
G1
N6080 Z216.500 F160.0 S585
G1
N6090 X-465.156 Z206.500 F160.0 S585
N6100 F160.0 S585
G1
N6110 X-475.156 F160.0 S585
G1
N6120 Y38.600 F160.0 S585
G0
N6130 Y173.000 F160.0 S585
M3
N6140 F160.0 S585
G0
N6150 X-438.044 Z249.786 F160.0 S585
G0
N6160 Y39.600 F160.0 S585
N6170 F160.0 S585
G1
N6180 Y37.600 F160.0 S585
G1
N6190 X-437.667 Z234.791 F160.0 S585
N6200 F160.0 S585
G1
N6210 X-437.500 Z228.293 F160.0 S585
G1
N6220 Z223.733 F160.0 S585
G1
N6230 Z208.658 F160.0 S585
N6240 F128.0 S585
G1
N6250 X-434.054 Z197.503 F128.0 S585
N6260 F160.0 S585
G1
N6270 X-442.571 Z197.500 F160.0 S585
G1
N6280 X-446.216 F160.0 S585
G1
N6290 X-465.156 F160.0 S585
N6300 F160.0 S585
G1
N6310 X-475.156 F160.0 S585
G1
N6320 Y38.600 F160.0 S585
G0
N6330 Y173.000 F160.0 S585
M3
N6340 F160.0 S585
G0
N6350 X-34.038 Z224.500 F160.0 S585
G0
N6360 Y39.600 F160.0 S585
N6370 F160.0 S585
G1
N6380 Y37.600 F160.0 S585
N6390 F160.0 S585
G1
N6400 X-34.765 F160.0 S585
G1
N6410 X-44.824 Z236.717 F160.0 S585
N6420 F160.0 S585
G1
N6430 X-45.150 Z249.713 F160.0 S585
G1
N6440 Y38.600 F160.0 S585
G0
N6450 Y87.600 F160.0 S585
G0
N6460 X-34.038 Z215.500 F160.0 S585
G0
N6470 Y39.600 F160.0 S585
N6480 F160.0 S585
G1
N6490 Y37.600 F160.0 S585
N6500 F160.0 S585
G1
N6510 X-43.625 F160.0 S585
G1
N6520 X-53.625 Z228.293 F160.0 S585
G1
N6530 X-53.634 Z229.059 F160.0 S585
G1
N6540 X-53.821 Z236.491 F160.0 S585
N6550 F160.0 S585
G1
N6560 X-54.148 Z249.487 F160.0 S585
G1
N6570 Y38.600 F160.0 S585
G0
N6580 Y87.600 F160.0 S585
G0
N6590 X-34.038 Z206.500 F160.0 S585
G0
N6600 Y39.600 F160.0 S585
N6610 F160.0 S585
G1
N6620 Y37.600 F160.0 S585
N6630 F160.0 S585
G1
N6640 X-43.538 F160.0 S585
G1
N6650 X-52.436 F160.0 S585
G1
N6660 X-62.625 Z223.759 F160.0 S585
G1
N6670 Z228.293 F160.0 S585
G1
N6680 X-62.631 Z228.833 F160.0 S585
G1
N6690 X-62.818 Z236.265 F160.0 S585
N6700 F160.0 S585
G1
N6710 X-63.145 Z249.261 F160.0 S585
G1
N6720 Y38.600 F160.0 S585
G0
N6730 Y173.000 F160.0 S585
M3
N6740 F160.0 S585
G0
N6750 X-37.038 Z197.500 F160.0 S585
G0
N6760 Y39.600 F160.0 S585
N6770 F160.0 S585
G1
N6780 Y37.600 F160.0 S585
N6790 F160.0 S585
G1
N6800 X-43.538 F160.0 S585
G1
N6810 X-62.909 F160.0 S585
G1
N6820 X-66.553 F160.0 S585
G1
N6830 X-73.925 Z197.501 F160.0 S585
G1
N6840 X-71.814 Z235.987 F160.0 S585
N6850 F160.0 S585
G1
N6860 X-72.087 Z248.984 F160.0 S585
G1
N6870 Y38.600 F160.0 S585
G0
N6880 Y173.000 F160.0 S585
M3
N6890 F160.0 S585
G0
N6900 X-289.562 Z51.264 F160.0 S585
G0
N6910 Y6.800 F160.0 S585
N6920 F160.0 S585
G1
N6930 Y4.800 F160.0 S585
G1
N6940 Z56.264 F160.0 S585
N6950 F160.0 S585
G1
N6960 Z79.264 F160.0 S585
N6970 F160.0 S585
G1
N6980 Y6.800 F160.0 S585
G0
N6990 Y173.000 F160.0 S585
M3
N7000 F160.0 S630
G0
N7010 Z-13.236 F160.0 S630
G0
N7020 Y6.800 F160.0 S630
N7030 F160.0 S630
G1
N7040 Y4.800 F160.0 S630
G1
N7050 Z-18.236 F160.0 S630
N7060 F350.3 S630
G1
N7070 Z-41.236 F350.3 S630
N7080 F160.0 S630
G1
N7090 Y6.800 F160.0 S630
G0
N7100 Y173.000 F160.0 S630
(TOOL NAME: S9.8)
T="S9.8"
TC
D1
FFWON
SOFT
N7110 F160.0 S1
M3
N7120 F160.0 S250
G0
N7130 X-0.100 Z51.926 F160.0 S250
G0
N7140 Y40.200 F160.0 S250
N7150 F500.0 S250
G1
N7160 Z65.050 F500.0 S250
G0
N7170 Y173.000 F500.0 S250
M3
N7180 F500.0 S812
G0
N7190 X-289.562 Z-41.236 F500.0 S812
G0
N7200 Y55.800 F500.0 S812
G0
N7210 Y15.800 F500.0 S812
N7220 F0.1 S812
G1
N7230 Y0.800 F0.1 S812
G04 X2.000
G0
N7240 F0.1 S812
G0
N7250 Y1.300 F0.1 S812
G1
N7260 Y-4.200 F0.1 S812
G04 X2.000
G0
N7270 F0.1 S812
G0
N7280 Y-3.700 F0.1 S812
G1
N7290 Y-9.200 F0.1 S812
G04 X2.000
G0
N7300 F0.1 S812
G0
N7310 Y-8.700 F0.1 S812
G1
N7320 Y-14.200 F0.1 S812
G04 X2.000
G0
N7330 F0.1 S812
G0
N7340 Y-13.700 F0.1 S812
G1
N7350 Y-19.200 F0.1 S812
G04 X2.000
G0
N7360 F0.1 S812
G0
N7370 Y-18.700 F0.1 S812
G1
N7380 Y-24.200 F0.1 S812
G04 X2.000
G0
N7390 F0.1 S812
G0
N7400 Y-23.700 F0.1 S812
G1
N7410 Y-25.144 F0.1 S812
G04 X2.000
G0
N7420 F0.1 S812
G0
N7430 Y15.800 F0.1 S812
G0
N7440 Y55.800 F0.1 S812
G0
N7450 Z79.264 F0.1 S812
G0
N7460 Y15.800 F0.1 S812
G1
N7470 Y0.800 F0.1 S812
G04 X2.000
G0
N7480 F0.1 S812
G0
N7490 Y1.300 F0.1 S812
G1
N7500 Y-4.200 F0.1 S812
G04 X2.000
G0
N7510 F0.1 S812
G0
N7520 Y-3.700 F0.1 S812
G1
N7530 Y-9.200 F0.1 S812
G04 X2.000
G0
N7540 F0.1 S812
G0
N7550 Y-8.700 F0.1 S812
G1
N7560 Y-14.200 F0.1 S812
G04 X2.000
G0
N7570 F0.1 S812
G0
N7580 Y-13.700 F0.1 S812
G1
N7590 Y-19.200 F0.1 S812
G04 X2.000
G0
N7600 F0.1 S812
G0
N7610 Y-18.700 F0.1 S812
G1
N7620 Y-24.200 F0.1 S812
G04 X2.000
G0
N7630 F0.1 S812
G0
N7640 Y-23.700 F0.1 S812
G1
N7650 Y-25.144 F0.1 S812
G04 X2.000
G0
N7660 F0.1 S812
G0
N7670 Y15.800 F0.1 S812
G0
N7680 Y55.800 F0.1 S812
G0
N7690 Y173.000 F0.1 S812
(TOOL NAME: RAZV_D10_PL)
T="RAZV_D10_PL"
TC
D1
FFWON
SOFT
N7700 F0.1 S1
M3
N7710 F0.1 S637
G0
N7720 F0.1 S637
G0
N7730 Y15.800 F0.1 S637
N7740 F0.2 S637
G1
N7750 Y-18.200 F0.2 S637
G04 X2.000
N7760 F0.4 S637
G1
N7770 F0.4 S637
G1
N7780 Y15.800 F0.4 S637
G0
N7790 Y173.000 F0.4 S637
M3
N7800 F0.4 S637
G0
N7810 Z-41.236 F0.4 S637
G0
N7820 Y15.800 F0.4 S637
N7830 F0.2 S637
G1
N7840 Y-18.200 F0.2 S637
G04 X2.000
N7850 F0.4 S637
G1
N7860 F0.4 S637
G1
N7870 Y15.800 F0.4 S637
G0
N7880 Y173.000 F0.4 S637

M5
M9
RTCPOF
M30
